.local/share/icons/Gruvbox-Plus-Dark/mimetypes/scalable/wps-office-ett.svg

<svg width="256" height="256" viewBox="0 0 256 256" fill="none" xmlns="http://www.w3.org/2000/svg">
<g opacity="0.4" filter="url(#filter0_f)">
<path d="M55.0839 15.5636H155.608L216.009 75.7129L216.011 224.609C216.011 233.52 208.749 240.737 199.838 240.737H55.0838C46.1734 240.737 39 233.564 39 224.654V31.6474C39 22.737 46.1734 15.5636 55.0838 15.5636H55.0839Z" fill="#282828"/>
</g>
<path d="M55.0839 15H155.608L216.009 75.1493L216.011 224.045C216.011 232.956 208.749 240.174 199.838 240.174H55.0838C46.1734 240.174 39 233 39 224.09V31.0838C39 22.1734 46.1734 15 55.0838 15H55.0839Z" fill="#ebdbb2"/>
<path opacity="0.2" d="M199.838 240.174C208.749 240.174 216.011 232.956 216.011 224.046L216.01 186.5H39V224.09C39 233 46.1734 240.174 55.0838 240.174H199.838Z" fill="url(#paint0_linear)"/>
<path fill-rule="evenodd" clip-rule="evenodd" d="M155.608 20.3191H55.0839C49.1112 20.3191 44.3191 25.1111 44.3191 31.0838V224.09C44.3191 230.063 49.1111 234.855 55.0838 234.855H199.838C205.83 234.855 210.692 229.999 210.692 224.046V75.1493L155.608 20.3191ZM155.608 15H55.0839C46.1735 15 39 22.1734 39 31.0838V224.09C39 233 46.1734 240.174 55.0838 240.174H199.838C208.749 240.174 216.011 232.956 216.011 224.045L216.009 75.1493L155.608 15Z" fill="url(#paint1_linear)"/>
<path d="M94.7281 226H113.848V221.48H99.5281V213.8H107.808V209.28H99.5281V202.52H112.968V198H94.7281V226ZM130.219 202.6H138.179V198H117.459V202.6H125.419V226H130.219V202.6ZM154.126 202.6H162.086V198H141.366V202.6H149.326V226H154.126V202.6Z" fill="url(#paint2_linear)"/>
<path d="M128.197 60C110.136 63.1018 92.0662 67.2161 74.0053 70.2607C74.0053 96.7536 73.9933 123.258 74.0053 149.762C91.9717 152.795 109.947 156.842 127.879 160H133.26V60H128.197ZM116.142 91.1714C112.996 97.3857 109.839 103.6 106.635 109.791C109.874 116.152 113.185 122.467 116.436 128.829C113.597 128.67 110.77 128.498 107.932 128.305C105.929 123.568 103.49 118.992 102.052 114.038C100.45 118.651 98.1642 123.001 96.3272 127.522C93.7467 127.488 91.1671 127.386 88.5866 127.283C91.6143 121.569 94.5365 115.809 97.6577 110.129C95.0078 104.279 92.0976 98.5429 89.3644 92.7277C91.9569 92.5795 94.5495 92.433 97.1411 92.2964C98.8957 96.7384 100.815 101.121 102.264 105.677C103.82 100.849 106.14 96.3062 108.131 91.6375C110.793 91.4554 113.468 91.2964 116.142 91.1714ZM136.964 74.2857V81.4286H148.075V88.5714H136.964V92.1429H148.075V99.2982H136.964V102.857H148.075V110H136.964V113.571H148.075V120.714H136.964V124.286H148.075V131.429H136.964V135H148.075V142.143H136.964V149.286H174V74.2857H136.964ZM151.778 81.4286H166.593V88.5714H151.778V81.4286ZM151.778 92.1429H166.593V99.2982H151.778V92.1429ZM151.778 102.857H166.593V110H151.778V102.857ZM151.778 113.571H166.593V120.714H151.778V113.571ZM151.778 124.286H166.593V131.429H151.778V124.286ZM151.778 135H166.593V142.143H151.778V135Z" fill="url(#paint3_linear)"/>
<path opacity="0.25" d="M155.608 17V61.2306C155.608 70.141 162.867 77.1605 171.777 77.1605L216.009 77.1493V75.1493L155.608 17Z" fill="#282828"/>
<path d="M155.608 15V59.2306C155.608 68.141 162.867 75.1605 171.777 75.1605L216.009 75.1493L155.608 15Z" fill="url(#paint4_linear)"/>
<defs>
<filter id="filter0_f" x="23.8778" y="0.441412" width="207.255" height="255.418" filterUnits="userSpaceOnUse" color-interpolation-filters="sRGB">
<feFlood flood-opacity="0" result="BackgroundImageFix"/>
<feBlend mode="normal" in="SourceGraphic" in2="BackgroundImageFix" result="shape"/>
<feGaussianBlur stdDeviation="7.5611" result="effect1_foregroundBlur"/>
</filter>
<linearGradient id="paint0_linear" x1="127.507" y1="186.5" x2="127.507" y2="240.175" gradientUnits="userSpaceOnUse">
<stop offset="1e-07" stop-color="#689d6a"/>
<stop offset="1" stop-color="#427b58"/>
</linearGradient>
<linearGradient id="paint1_linear" x1="127.507" y1="15" x2="127.507" y2="240.178" gradientUnits="userSpaceOnUse">
<stop offset="1e-07" stop-color="#689d6a"/>
<stop offset="1" stop-color="#427b58"/>
</linearGradient>
<linearGradient id="paint2_linear" x1="127.502" y1="187" x2="127.502" y2="240.001" gradientUnits="userSpaceOnUse">
<stop offset="1e-07" stop-color="#689d6a"/>
<stop offset="1" stop-color="#427b58"/>
</linearGradient>
<linearGradient id="paint3_linear" x1="124.001" y1="60" x2="124.001" y2="160.002" gradientUnits="userSpaceOnUse">
<stop offset="1e-07" stop-color="#689d6a"/>
<stop offset="1" stop-color="#427b58"/>
</linearGradient>
<linearGradient id="paint4_linear" x1="185.809" y1="15" x2="185.809" y2="75.1616" gradientUnits="userSpaceOnUse">
<stop offset="1e-07" stop-color="#689d6a"/>
<stop offset="1" stop-color="#427b58"/>
</linearGradient>
</defs>
</svg>

<svg width="256" height="256" fill="none" version="1.1" viewBox="0 0 256 256" xmlns="http://www.w3.org/2000/svg">
  <path d="m55.08 15h100.5l60.4 60.15 2e-3 148.9c0 8.911-7.262 16.13-16.17 16.13h-144.8c-8.91 0-16.08-7.174-16.08-16.08v-193c0-8.91 7.173-16.08 16.08-16.08h1e-4z" fill="#ebdbb2"/>
  <path d="m199.8 240.2c8.911 0 16.17-7.218 16.17-16.13l-1e-3 -37.55h-177v37.59c0 8.91 7.173 16.08 16.08 16.08h144.8z" fill="url(#paint0_linear)" opacity=".2"/>
  <path d="m155.6 20.32h-100.5c-5.973 0-10.76 4.792-10.76 10.76v193c0 5.973 4.792 10.76 10.76 10.76h144.8c5.992 0 10.85-4.856 10.85-10.81v-148.9l-55.08-54.83zm0-5.319h-100.5c-8.91 0-16.08 7.173-16.08 16.08v193c0 8.91 7.173 16.08 16.08 16.08h144.8c8.911 0 16.17-7.218 16.17-16.13l-2e-3 -148.9-60.4-60.15z" clip-rule="evenodd" fill="url(#paint1_linear)" fill-rule="evenodd"/>
  <path d="m94.73 226h19.12v-4.52h-14.32v-7.68h8.28v-4.52h-8.28v-6.76h13.44v-4.52h-18.24v28zm35.49-23.4h7.96v-4.6h-20.72v4.6h7.96v23.4h4.8v-23.4zm23.91 0h7.96v-4.6h-20.72v4.6h7.96v23.4h4.8v-23.4z" fill="url(#paint2_linear)"/>
  <path d="m128.2 60c-18.06 3.102-36.13 7.216-54.19 10.26 0 26.49-0.012 53 0 79.5 17.97 3.033 35.94 7.08 53.87 10.24h5.381v-100h-5.063zm-12.06 31.17c-3.146 6.214-6.303 12.43-9.507 18.62 3.239 6.361 6.55 12.68 9.801 19.04-2.839-0.159-5.666-0.331-8.504-0.524-2.003-4.737-4.442-9.313-5.88-14.27-1.602 4.613-3.888 8.963-5.725 13.48-2.58-0.034-5.16-0.136-7.741-0.239 3.028-5.714 5.95-11.47 9.071-17.15-2.65-5.85-5.56-11.59-8.293-17.4 2.592-0.1482 5.185-0.2947 7.777-0.4313 1.755 4.442 3.674 8.825 5.123 13.38 1.556-4.828 3.876-9.371 5.867-14.04 2.662-0.1821 5.337-0.3411 8.011-0.4661zm20.82-16.89v7.143h11.11v7.143h-11.11v3.572h11.11v7.155h-11.11v3.559h11.11v7.143h-11.11v3.571h11.11v7.143h-11.11v3.572h11.11v7.143h-11.11v3.571h11.11v7.143h-11.11v7.143h37.04v-75h-37.04zm14.81 7.143h14.82v7.143h-14.82v-7.143zm0 10.71h14.82v7.155h-14.82v-7.155zm0 10.71h14.82v7.143h-14.82v-7.143zm0 10.71h14.82v7.143h-14.82v-7.143zm0 10.72h14.82v7.143h-14.82v-7.143zm0 10.71h14.82v7.143h-14.82v-7.143z" fill="url(#paint3_linear)"/>
  <path d="m155.6 17v44.23c0 8.91 7.259 15.93 16.17 15.93l44.23-0.0112v-2l-60.4-58.15z" fill="#282828" opacity=".25"/>
  <path d="m155.6 15v44.23c0 8.91 7.259 15.93 16.17 15.93l44.23-0.0112-60.4-60.15z" fill="url(#paint4_linear)"/>
  <defs>
    <linearGradient id="paint0_linear" x1="127.5" x2="127.5" y1="186.5" y2="240.2" gradientUnits="userSpaceOnUse">
      <stop stop-color="#689d6a" offset="1e-7"/>
      <stop stop-color="#427b58" offset="1"/>
    </linearGradient>
    <linearGradient id="paint1_linear" x1="127.5" x2="127.5" y1="15" y2="240.2" gradientUnits="userSpaceOnUse">
      <stop stop-color="#689d6a" offset="1e-7"/>
      <stop stop-color="#427b58" offset="1"/>
    </linearGradient>
    <linearGradient id="paint2_linear" x1="127.5" x2="127.5" y1="187" y2="240" gradientUnits="userSpaceOnUse">
      <stop stop-color="#689d6a" offset="1e-7"/>
      <stop stop-color="#427b58" offset="1"/>
    </linearGradient>
    <linearGradient id="paint3_linear" x1="124" x2="124" y1="60" y2="160" gradientUnits="userSpaceOnUse">
      <stop stop-color="#689d6a" offset="1e-7"/>
      <stop stop-color="#427b58" offset="1"/>
    </linearGradient>
    <linearGradient id="paint4_linear" x1="185.8" x2="185.8" y1="15" y2="75.16" gradientUnits="userSpaceOnUse">
      <stop stop-color="#689d6a" offset="1e-7"/>
      <stop stop-color="#427b58" offset="1"/>
    </linearGradient>
  </defs>
</svg>
